X:1
T: Lady Susan Gordon's Reel
C:William Marshall
R:Reel
Q: 232
K:Bb
M:4/4
L:1/8
|:Bf dB fB dB|GB FD EC C2|Bf dB fB dB|g1/2a1/2b fe dB B2|
Bf dB fB dB|GB FD EC C2|Bf dB fB dB|g1/2a1/2b fe dB B2|
D1/2E1/2F BF dF BF|E1/2F1/2G cG eG cG|D1/2E1/2F BF dF BF|FA ce dB B2|
D1/2E1/2F BF dF BF|E1/2F1/2G cG eG cG|D1/2E1/2F BF dB fd|g1/2a1/2b fe dB B2:|
